X:12
T:Captain Clapperton
B:Goulding and d'Almaine's Twenty-four Country Dances For the year 1826.
L:1/8
M:2/4
O:England
Z:Richard Robinson <URL:http://www.qualmograph.org.uk/contact.html>
%%Dancenotes:Cast off 3 Couples, lead down the middle and hands across at the top
%%UploadedFrom:Goulding_and_dAlmaine.abc
F:http://richardrobinson.tunebook.org.uk/Tune/3556
K:C
G |\
cG/G/ cG/G/ | dBGB     | cedg | ecc G |\
cG/G/ cG/G/ | dBG g/f/ | ecdB | cCC ||
e |\
dG/G/ dG/G/ | f/e/d/c/ B/A/G/F/ | EG ce       | d/c/B/c/ Bc |\
dG/G/ dG/G/ | f/e/d/c/ B/A/G/F/ | E/G/c/e/ dB | cCC |]

